frontend/public/exe.svg

<svg width="20" height="22" viewBox="0 0 20 22" fill="none" xmlns="http://www.w3.org/2000/svg">
<path d="M0.85858 1.87756L13.4293 0.0817485C13.7027 0.0426985 13.9559 0.232648 13.995 0.506009C13.9983 0.529429 14 0.553058 14 0.576718V21.4237C14 21.6999 13.7761 21.9237 13.5 21.9237C13.4763 21.9237 13.4527 21.922 13.4293 21.9187L0.85858 20.1229C0.36593 20.0525 0 19.6306 0 19.1329V2.86751C0 2.36986 0.36593 1.94794 0.85858 1.87756ZM2 3.73481V18.2656L12 19.6942V2.30624L2 3.73481ZM15 18.0002H18V4.00022H15V2.00022H19C19.5523 2.00022 20 2.44793 20 3.00022V19.0002C20 19.5525 19.5523 20.0002 19 20.0002H15V18.0002ZM8.2 11.0002L11 15.0002H8.6L7 12.7145L5.39999 15.0002H3L5.8 11.0002L3 7.00022H5.39999L7 9.2859L8.6 7.00022H11L8.2 11.0002Z" fill="#284CE5"/>
</svg>

<svg xmlns="http://www.w3.org/2000/svg" width="20" height="22" fill="none"><path fill="#284CE5" d="M.859 1.878 13.429.082A.5.5 0 0 1 14 .577v20.847a.5.5 0 0 1-.57.495L.858 20.123a1 1 0 0 1-.859-.99V2.868a1 1 0 0 1 .859-.99M2 3.735v14.53l10 1.43V2.305zM15 18h3V4h-3V2h4a1 1 0 0 1 1 1v16a1 1 0 0 1-1 1h-4zm-6.8-7 2.8 4H8.6L7 12.714 5.4 15H3l2.8-4L3 7h2.4L7 9.286 8.6 7H11z"/></svg>
